X:1
T:Clap Hands, O Ye Heavens
T:Clap Hands, O Ye Heavens
T:Anonymous, 1881
T:16th Century
T:Public Domain Courtesy of the Cyber Hymnal™
T:Public Domain Courtesy of the Cyber Hymnal™
C:Anonymous, 1881
Z:Public Domain
Z:Courtesy of the Cyber Hymnal™
%%score ( 1 2 ) ( 3 4 )
L:1/8
Q:1/4=140
M:3/4
K:Eb
V:1 treble 
V:2 treble 
V:3 bass 
V:4 bass 
V:1
 [GB]2 | [GB]2 [Ac]2 [GB]2 | [GB]2 [EG]2 [GB]2 | [GB]2 [Ac]2 [GB]2 | [EG]4 [EG]2 | %5
w: 1~Clap|hands, O ye|hea- vens, Thou|fir- ma- ment|ring! From|
w: 2.~Come|forth, O ye|flow- ers, Come|forth with the|Spring! And|
w: 3.~Thou|song of re-|joic- ing, Rise|high- er and|higher, Thou|
 [DF]2 [DF]2 [DF]2 | [FB]2 [FB]2 [Gc]2 | [Fd]2 [Fe]2 [Ec]2 | [DB]4 [GB]2 | [GB]2 [Ac]2 [GB]2 | %10
w: high- est to|low- est, Thou|un- i- verse|sing! The|dark- ness and|
w: deck the fair|plains with Each|blos- som- ing|thing. With|vi- o- lets|
w: spir- it of|glad- ness, Breathe|forth from the|lyre. For|Je- sus is|
 [GB]2 [EG]2 [Gc]2 | [GB]2 [GB]2 [^F=A]2 | G4 [EG]2 | [EG]2 [DA]2 [EB]2 | [Ac]4 [_Gc]2 | %15
w: tu- mult Have|end- ed in|calm; And|glo- ry has|come, And|
w: hum- ble Let|ros- es be|joined, And|mar- i- golds|bright, With|
w: ris- en, As|tru- ly He|said, Un-|con- quered, un-|harmed, He’s|
 [FB]2 [Gc]2 [Ad]2 | [Ge]4 ||"^Refrain" [Ge][Ge] | [ce]2 [Bd]2 [Ac]2 | [GB]2 [EG]2 [GB]2 | %20
w: vic- to- ry’s|palm.||||
w: lil- ies com-|bined.|Clap your|hands, all ye|mount- ains! Ye|
w: come from the|dead.||||
 [GB]2 ([Ac][GB]) ([FA][EG]) | [DF]4 [DF]2 | [FB]2 [FB]2 [Fc]2 | [Fd]2 [Fd]2 [Ff]2 | %24
w: ||||
w: val- leys, * all *|ring! O|war- ble, ye|foun- tains, Ye|
w: ||||
 [Ge]2 [Fd]2 [Ec]2 | [DB]4 [GB]2 | [GB]2 [Ac]2 [GB]2 | [EG]4 [GB]2 | [Ac]2 [Ac]2 [Ad]2 | %29
w: |||||
w: lit- tle hills,|sing! He|liv- eth a-|gain, as|tru- ly He|
w: |||||
 [Ge]4 [Ge]2 | [ce]2 [Bd]2 [Ac]2 | [GB]4 [EG]>[EG] | [FA]2 [EG]2 [DF]2 | E4 |] %34
w: |||||
w: said. Un-|con- quered, un-|harmed, He has|come from the|dead.|
w: |||||
V:2
 x2 | x6 | x6 | x6 | x6 | x6 | x6 | x6 | x6 | x6 | x6 | x6 | G4 x2 | x6 | x6 | x6 | x4 || x2 | x6 | %19
 x6 | x6 | x6 | x6 | x6 | x6 | x6 | x6 | x6 | x6 | x6 | x6 | x6 | x6 | E4 |] %34
V:3
 [E,E]2 | [E,E]2 [E,E]2 [E,E]2 | [E,E]2 [E,B,]2 [E,E]2 | [E,E]2 [E,E]2 [E,E]2 | [E,B,]4 [E,B,]2 | %5
 [B,,B,]2 [B,,B,]2 [B,,B,]2 | [D,B,]2 [D,B,]2 [E,B,]2 | [F,B,]2 [F,C]2 [F,=A,]2 | [B,,B,]4 [E,E]2 | %9
 [E,E]2 [E,E]2 [E,E]2 | [E,E]2 [E,B,]2 [C,E]2 | [D,D]2 [D,D]2 [D,C]2 | [G,,B,]4 [E,B,]2 | %13
 [E,B,]2 [F,B,]2 [G,E]2 | [A,E]4 [=A,E]2 | [B,D]2 [B,E]2 [B,F]2 | [E,E]4 || [E,B,][E,B,] | %18
 A,2 (A,B,) (CD) | [E,E]2 [E,B,]2 [E,E]2 | [E,E]2 [E,E]2 [E,B,]2 | [B,,B,]4 [B,,B,]2 | %22
 [D,B,]2 [D,B,]2 [F,=A,]2 | B,2 B,2 [D,B,]2 | [E,B,]2 [F,B,]2 [F,=A,]2 | [B,,B,]4 [E,E]2 | %26
 [E,E]2 [E,E]2 [E,E]2 | [E,B,]4 [E,E]2 | [A,E]2 [A,E]2 [F,B,]2 | [E,B,]4 [E,B,]2 | %30
 A,2 (A,B,) (CD) | [E,E]4 [E,B,]>[E,B,] | [A,,C]2 [B,,B,]2 [B,,A,]2 | [E,G,]4 |] %34
V:4
 x2 | x6 | x6 | x6 | x6 | x6 | x6 | x6 | x6 | x6 | x6 | x6 | x6 | x6 | x6 | x6 | x4 || x2 | %18
 A,2 A,2 A,2 | x6 | x6 | x6 | x6 | B,2 B,2 x2 | x6 | x6 | x6 | x6 | x6 | x6 | A,2 A,2 A,2 | x6 | %32
 x6 | x4 |] %34

